X:1
T: Parody of Drumnagarny
C:
R:Strathspey
Q: 128
K:G
M:4/4
L:1/16
|:D2|G3D B,G,3 B,D3 G3B|c3D AG3 EA3 FD3|G3D B,G,3 B,D3 G3D|EFG2 FGA2 BG3 G2D2|
G3D B,G,3 B,D3 G3B|c3D AG3 EA3 FD3|G3D B,G,3 B,D3 G3D|EFG2 FGA2 BG3 G2c2|
Bcd2 BG3 g3f ed3|c3B AG3 EA3 FD3|BG3 Bd3 g3f ed3|((3e2f2g2) ((3f2g2a2) g4 G3c|
Bcd2 BG3 EFA2 FD3|EC3 c3B A3G FD3|B,G,3 D3G, E3G, D3B,|((3E2F2G2) ((3F2G2A2) G6:|
